X:1
T:old wife of coverdale 
F:http://simonwascher.info
Z:abc transcription Simon Wascher
M:6/8
L:1/8
K:Dm
GAGB2d dcB | AGAF2A AFD | GAGB2d dcB |1 AGA FGAG2 :|\
                                     [2 AGA FGAG2d ||
gfe dcB | A3 f3 | A3 d3 | gfe dcB | A2A F2A | G3 G3 :|
%%wordsfont Times-Italic 11pt
W:aus Simon Waschers TradArchiv
